X:1
T:Title
%%score { ( 1 3 ) | 2 }
L:1/8
Q:1/4=116
M:3/4
K:Eb
V:1 treble nm="Grand Piano"
V:3 treble 
V:2 bass 
V:1
 [GB]3 [Ac] [GB]2 | [B,EG]2 [A,DF]2 [G,B,E]2 | [A,DF]2 [G,B,E]2 [B,DF]2 | [B,EG]6 | %4
w: W.~Stillman~Martin * *||||
 [B,FA]3 [B,=EG] [B,FA]2 | [D,B,]2 [F,B,D]2[K:treble] [DF]2 | [Ac]2 [GB]2 [_G=A]2 | [GB]6 | %8
w: ||||
 [GB]3 [Ac] [GB]2 | G2 F2 E2 | [Ae]2 [Ad]2 [Ac]2 | [GB]6 | [GB]3 [G=A] G2 | F2 B2 d2 | c2 G2 =A2 | %15
w: |||||||
 [DB]6 | B3 B B2 | B [GB]3 [EB]2 | [DA]2 [CA]2 [DA]2 | G6 | G2 A2 B2 | c4 cc | c2 d2 e2 | %23
w: ||||||||
 d4- [Ad]2 | [Ge]2 [Ge]2 [Ge]2 | [GB] [GB]3 G2 | G2 A2 B2 | c6 | e2 d2 c2 | B e3 E2 | %30
w: |||||||
 [EG]2 [DG]2 [DF]2 | [B,E]6 |] %32
w: ||
V:2
 [E,E]3 [E,E] [E,E]2 | E,2 E,2 E,2 | B,,2 B,,2 B,,2 | E,6 | B,,3 B,, B,,2 | B,,2 B,,2 B,,2 | %6
 [E,E]2 [E,E]2 [E,E]2 | [E,E]6 | [E,E]3 [E,E] [E,E]2 | [E,B,E]2 [E,A,D]2 [E,G,B,]2 | %10
 [E,C]2 [E,D]2 [E,E]2 | [E,E]6 | [=E,_D]3 [E,D] [E,B,D]2 | [F,B,D]2 [F,B,D]2 [F,B,F]2 | %14
 [F,=A,E]2 [F,B,E]2 [F,CE]2 | [B,,B,]6 | [E,G,B,]3 [E,A,C] [E,A,D]2 | [E,G,E] [E,B,]3 [E,G,]2 | %18
 [B,,B,]2 [B,,B,]2 [B,,B,]2 | [E,B,E]6 | [E,B,E]2 [F,B,D]2 [G,B,E]2 | [A,E]4 [A,E][A,E] | %22
 [F,=A,F]2 [F,B,F]2 [F,CF]2 | [B,,B,]6 | [E,B,]2 [E,B,]2 [E,B,]2 | [E,E] [E,E]3 [E,B,E]2 | %26
 [E,B,E]2 [F,B,D]2[K:treble] [G,B,E]2 | [A,E]6 | [A,C_G]2 [A,DG]2 [A,EG]2 | %29
 [B,EG] [B,G]3[K:bass] [B,,G,]2 | [B,,B,]2 [B,,B,]2 [B,,A,]2 | [E,G,]6 |] %32
V:3
 x6 | x6 | x6 | x6 | x6 | x4[K:treble] x2 | x6 | x6 | x6 | x6 | x6 | x6 | x6 | x6 | x6 | x6 | x6 | %17
 x6 | x6 | x6 | x6 | x6 | x6 | F4 z2 | x6 | x6 | x6 | x6 | x6 | x6 | x6 | x6 |] %32

